src/img/projects/cli.svg

<?xml version="1.0" encoding="UTF-8"?>
<svg width="90px" height="90px" viewBox="0 0 90 90" version="1.1" xmlns="http://www.w3.org/2000/svg" xmlns:xlink="http://www.w3.org/1999/xlink">
    <!-- Generator: Sketch 41.2 (35397) - http://www.bohemiancoding.com/sketch -->
    <title>community/card/logo/cli</title>
    <desc>Created with Sketch.</desc>
    <defs></defs>
    <g id="Symbols" stroke="none" stroke-width="1" fill="none" fill-rule="evenodd">
        <g id="community/card/logo/cli" fill="#2EDE98">
            <path d="M64.2354052,26.6705257 L27.2841163,26.6705257 C26.4786052,26.6705257 22.4592275,27.1642432 22.4592275,32.4529657 L22.4592275,58.8791298 C22.4592275,64.1678522 26.8445608,64.1516966 27.6429163,64.1516966 L63.1518497,64.1516966 C63.9502052,64.1516966 68.4592275,64.1678522 68.4592275,58.1850819 L68.4592275,32.9066171 C68.4592275,27.1642432 65.034783,26.6705257 64.2354052,26.6705257 L64.2354052,26.6705257 Z M41.0202275,45.6521539 L28.6687163,52.8220433 C28.0313608,53.2013786 27.2769608,52.8394915 26.9840941,52.0336463 C26.9104941,51.8113442 26.8742052,51.5890421 26.8742052,51.3673862 C26.8742052,50.7554091 27.1450941,50.1718661 27.613783,49.9036818 L37.4889608,44.1697089 L27.6214497,38.3620661 C26.9840941,37.991778 26.7055386,37.0282534 27.0055608,36.2224083 C27.218183,35.6395114 27.6797163,35.2963648 28.1560719,35.2963648 C28.3318941,35.2963648 28.5148719,35.3428932 28.6906941,35.4443508 L41.0125608,42.7324999 C41.2762941,42.8811321 41.4740941,43.4724299 41.5993163,43.4724299 L41.6064719,43.4724299 C41.6212941,43.4724299 41.6356052,43.5196045 41.6427608,43.5577319 C41.9361386,44.3532374 41.657583,45.2812195 41.0202275,45.6521539 L41.0202275,45.6521539 Z M61.1298941,58.1372611 C61.0930941,58.20253 61.0491386,58.267799 60.9975163,58.3130349 C60.9898497,58.3324217 60.9755386,58.3511623 60.9540719,58.3686104 C60.9387386,58.387351 60.9239163,58.3963982 60.9090941,58.415785 C60.857983,58.4707143 60.7997163,58.5262898 60.733783,58.5728182 C60.4920275,58.7479457 60.2058052,58.8500496 59.8981163,58.8500496 L43.8988052,58.8965779 C43.0713163,58.8965779 42.4043163,58.174096 42.3971608,57.2848876 C42.3971608,56.8402833 42.5653163,56.4422075 42.8367163,56.1455892 C43.1076052,55.8580182 43.4740719,55.6822444 43.8916497,55.6731972 L59.8914719,55.6266689 C60.7118052,55.6266689 61.3859608,56.3491508 61.3859608,57.2383592 C61.3859608,57.5724586 61.2914052,57.8787703 61.1298941,58.1372611 L61.1298941,58.1372611 Z" id="Shape"></path>
        </g>
    </g>
</svg>

<svg width="90" height="90" viewBox="0 0 90 90" xmlns="http://www.w3.org/2000/svg"><title>community/card/logo/cli</title><path d="M64.235 26.67h-36.95c-.806 0-4.826.494-4.826 5.783v26.426c0 5.289 4.386 5.273 5.184 5.273h35.509c.798 0 5.307.016 5.307-5.967V32.907c0-5.743-3.424-6.236-4.224-6.236zM41.02 45.653l-12.351 7.17c-.638.38-1.392.017-1.685-.788a2.11 2.11 0 0 1-.11-.667c0-.612.271-1.195.74-1.463l9.875-5.734-9.868-5.808c-.637-.37-.915-1.334-.615-2.14.212-.582.674-.926 1.15-.926.176 0 .359.047.535.148l12.322 7.288c.263.15.461.74.586.74h.007c.015 0 .03.048.037.086.293.795.015 1.723-.623 2.094zm20.11 12.485a.68.68 0 0 1-.132.176.139.139 0 0 1-.044.056c-.015.018-.03.027-.045.047-.051.055-.11.11-.175.157a1.417 1.417 0 0 1-.836.277l-16 .047c-.827 0-1.494-.723-1.5-1.612 0-.445.167-.843.439-1.14.27-.287.637-.463 1.055-.472l16-.046c.82 0 1.494.722 1.494 1.611 0 .334-.095.64-.256.9z" fill="#2EDE98" fill-rule="evenodd"/></svg>
